Catalina-dark/actions/22/office-chart-area-stacked.svg

<svg xmlns="http://www.w3.org/2000/svg" viewBox="0 0 22 22">
  <defs id="defs3051">
    <style type="text/css" id="current-color-scheme">
      .ColorScheme-Text {
        color:#f2f2f2;
      }
      </style>
  </defs>
 <path 
     style="fill:currentColor;fill-opacity:1;stroke:none" 
     d="M 4 3 L 4 9 L 4 10 L 4 15 L 4 16 L 4 17 L 3 17 L 3 18 L 4 18 L 4 19 L 5 19 L 5 18 L 19 18 L 19 17 L 5 17 L 5 16 L 5.0078125 16 L 6 16 L 8 16 L 8 15.992188 L 8.0078125 16 L 10.007812 14 L 11.599609 14 L 13.599609 16 L 17.099609 16 L 19 16 L 19 15 L 17.099609 15 L 14.013672 15 L 12.013672 13 L 12 13 L 11.007812 13 L 10.599609 13 L 9.59375 13 L 7.59375 15 L 6 15 L 5.0078125 15 L 5 15 L 5 12 L 5 11 L 5 10 L 6 10 L 7 10 L 8.8730469 10 L 8.875 10 L 10.875 8 L 11.703125 7.171875 L 12.998047 5.8769531 L 15.121094 8 L 15.126953 7.9960938 L 15.130859 8 L 17.130859 6 L 17.958984 5.171875 L 19 4.1308594 L 18.292969 3.4238281 L 17.251953 4.4648438 L 16.423828 5.2929688 L 15.126953 6.5898438 L 13 4.4648438 L 12.998047 4.4667969 L 12.996094 4.4648438 L 11.46875 5.9921875 L 5 5.9921875 L 5 5 L 5 3 L 4 3 z M 5 6 L 11.460938 6 L 10.996094 6.4648438 L 10.167969 7.2929688 L 8.4609375 9 L 7 9 L 6 9 L 5 9 L 5 6 z "
     class="ColorScheme-Text"
     />
 <path 
     style="fill:currentColor;fill-opacity:0.5;stroke:none" 
     d="M 18.933594 4.0644531 L 19 4.1308594 L 19 4.1269531 L 18.933594 4.0644531 z M 19 4.1308594 L 17.958984 5.171875 L 17.130859 6 L 15.130859 8 L 15.126953 7.9960938 L 15.121094 8 L 12.998047 5.8769531 L 11.703125 7.171875 L 10.875 8 L 8.875 10 L 8.8730469 10 L 7 10 L 6 10 L 5 10 L 5 11 L 5 12 L 5 15 L 5.0078125 15 L 7.59375 15 L 9.59375 13 L 10 13 L 12 12.992188 L 12.007812 13 L 12.013672 13 L 14.005859 14.992188 L 19 15 L 19 4.1308594 z M 10 14 L 8 16 L 5 16 L 5 17 L 19 17 L 19 16 L 13.599609 16 L 11.599609 14 L 10 14 z "
     class="ColorScheme-Text"
     />
</svg>

<svg width="22" height="22" viewBox="3 3 16 16" xmlns="http://www.w3.org/2000/svg">
<defs>
<style id="current-color-scheme" type="text/css">.ColorScheme-Text {
        color:#f2f2f2;
      }</style>
</defs>
<path class="ColorScheme-Text" d="m4 3v6 1 5 1 1h-1v1h1v1h1v-1h14v-1h-14v-1h0.0078125 0.99219 2v-0.007812l0.0078125 0.007812 2-2h1.5918l2 2h3.5 1.9004v-1h-1.9004-3.0859l-2-2h-0.013672-0.99219-0.4082-1.0059l-2 2h-1.5938-0.99219-0.0078125v-3-1-1h1 1 1.873 0.0019531l4.123-4.123 2.123 2.123 0.005859-0.0039062 0.003906 0.0039062 3.8691-3.8691-0.70703-0.70703-3.166 3.166-2.127-2.125-0.001953 0.0019531-0.001953-0.0019531-1.5273 1.5273h-6.4688v-0.99219-2h-1zm1 3h6.4609l-3 3h-1.4609-1-1v-3z" fill="currentColor"/>
<path class="ColorScheme-Text" d="m18.934 4.0645 0.066406 0.066406v-0.0039063l-0.066406-0.0625zm0.066406 0.066406-3.8691 3.8691-0.003906-0.0039062-0.005859 0.0039062-2.123-2.123-4.123 4.123h-0.0019531-1.873-1-1v1 1 3h0.0078125 2.5859l2-2h0.40625l2-0.007812 0.007812 0.007812h0.00586l1.9922 1.9922 4.9941 0.007812v-10.869zm-9 9.8691-2 2h-3v1h14v-1h-5.4004l-2-2h-1.5996z" fill="currentColor" fill-opacity=".5"/>
</svg>
